!!!!SEGMENT: pl-cz--iii-830--003_raszek-wacllaw--sinfonia-d-romance.krn
!!!cenid: 17xx:1093
!!!COM: Raszek, Wacław
!!!COM-rismid: pe30020314
!!!CDT: <1848->1848
!!!CNT:
!!!OPR: Sinfonia D
!!!OTL: Romance
!!!OMV: 003
!!!PDT:
!!!AGN: Secular
!!!SMS-siglum: PL-CZ
!!!SMS-shelfmark: III-830
!!!SMS-shelfwork: 001-003 M
!!!SMS-variant:
!!!SMS-altvar:
!!!NIFC-rismid: 300001061
!!!URL-scan: http://repozytorium.nifc.pl/skany/pl-cz-nut--iii-830
!!!ONB-nifc: UWAGA: części Sinfonii: Maestoso, Allegro vivace, Romance, Rondo
!!!key: A
**kern	**dynam	**kern	**dynam	**kern	**dynam	**kern	**dynam	**kern	**dynam	**kern	**dynam
*part6	*part6	*part5	*part5	*part4	*part4	*part3	*part3	*part2	*part2	*part1	*part1
*staff6	*	*staff5	*	*staff4	*	*staff3	*	*staff2	*	*staff1	*
*ICstr	*	*ICstr	*	*ICstr	*	*ICbras	*	*ICww	*	*ICww	*
*Icbass	*	*Ivioln	*	*Ivioln	*	*Icor	*	*Iclars	*	*Iclars	*
*I"Basso	*	*I"Wiolino Secundo	*	*I"Violino Primo	*	*I"Cornu prymo yn D:	*	*I"Clarynetto Secundo in A wel oboe	*	*I"Clarynetto prymo in A Wel oboee	*
*I'b	*	*I'vl 2	*	*I'vl 1	*	*I'cor 1 in D	*	*I'cl 2 in A	*	*I'cl 1 in A	*
*clefF4	*	*clefG2	*	*clefG2	*	*clefG2	*	*clefG2	*	*clefG2	*
*	*	*	*	*	*	*ITrd6c10	*	*ITrd2c3	*	*ITrd2c3	*
*k[f#c#g#]	*	*k[f#c#g#]	*	*k[f#c#g#]	*	*k[f#c#]	*	*k[f#c#g#]	*	*k[f#c#g#]	*
*A:	*	*A:	*	*A:	*	*A:	*	*A:	*	*A:	*
*M2/4	*	*M2/4	*	*M2/4	*	*M2/4	*	*M2/4	*	*M2/4	*
*2\right	*	*2\right	*	*2\right	*	*2\right	*	*2\right	*	*2\right	*
!	!	!	!	!	!	!	!	!LO:TX:t=P:problem:4,8\middle:global	!	!LO:TX:t=P:problem:4,8\middle:global	!
!LO:TX:t=P:problem:4,8\ middle:global	!	!	!	!LO:TX:t=P:problem:4,8,16\middle:global	!	!LO:TX:t=P:problem:4,8\middle:global	!	!LO:TX:a:t=And.:rj	!	!LO:TX:a:t=Adante:rj	!
!LO:TX:a:t=allegretto moder:rj	!	!LO:TX:a:t=andante alegro\nModer.	!LO:DY:a:t=p.	!LO:TX:a:t=and&colon; alegretto modera&colon;	!LO:DY:a	!	!	!LO:TX:t=Romance Clarynetto in A	!LO:DY:a	!LO:TX:a:t=Romanc Clarinetto in A	!
8r	.	8c#/	p	8e/	p	8r	.	8cc#\	p	8ee\	.
=1	=1	=1	=1	=1	=1	=1	=1	=1	=1	=1	=1
!	!LO:DY:a	!	!	!	!	!LO:TX:b:t=16	!	!	!	!	!
4r	p	8B#X/L	.	(8d#X/L	.	0r	.	(8b#X\L	.	(8dd#X\L	.
.	.	8c#/	.	8e/)	.	.	.	8cc#\)	.	8ee\)	.
8r	.	8A/	.	8c#'/	.	.	.	8a\	.	8cc#'\	.
8A\	.	8A/J	.	8c#'/J	.	.	.	8a\J	.	8cc#'\J	.
=2	=2	=2	=2	=2	=2	=2	=2	=2	=2	=2	=2
!LO:TX:t=P:problem:mixed beam	!	!	!	!	!	!	!	!	!	!	!
(8G#\L	.	4.A/	.	4.c#/	.	.	.	4.a\	.	4.cc#\	.
8A\)	.	.	.	.	.	.	.	.	.	.	.
8AA'/J	.	.	.	.	.	.	.	.	.	.	.
8r	.	8B/	.	8dn/	.	.	.	8b\	.	8dd\	.
=3	=3	=3	=3	=3	=3	=3	=3	=3	=3	=3	=3
4r	.	8A#X/L	.	(8c#/L	.	.	.	(8a#X\L	.	(8cc#\L	.
.	.	8B/	.	8d/)	.	.	.	8b\)	.	8dd\)	.
8r	.	8G#/	.	8B'/	.	.	.	8g#\	.	8b\	.
8E\	.	8G#/J	.	8B'/J	.	.	.	8g#\J	.	8b\J	.
=4	=4	=4	=4	=4	=4	=4	=4	=4	=4	=4	=4
!LO:TX:t=P:problem:mixed beam	!	!	!	!	!	!	!	!	!	!	!
(8D#X\L	.	4.G#/	.	4.B/	.	.	.	4.g#\	.	4.b\	.
8E\)	.	.	.	.	.	.	.	.	.	.	.
8EE'</J	.	.	.	.	.	.	.	.	.	.	.
8r	.	8A/	.	8c#/	.	.	.	8a\	.	8cc#\	.
=5	=5	=5	=5	=5	=5	=5	=5	=5	=5	=5	=5
!	!	!	!	!	!	!	!	!LO:TX:t=P:problem:mixed beam	!	!	!
4AA/	.	8G#/L	.	8B#X/L	.	0r	.	8g#\L	.	(8b#X\L	.
.	.	8A/	.	8c#/	.	.	.	8a\	.	8cc#\)	.
4r	.	8A/	.	8A/	.	.	.	8c#/J	.	8a\J	.
.	.	8f#/J	.	8a/J	.	.	.	8r	.	8r	.
=6	=6	=6	=6	=6	=6	=6	=6	=6	=6	=6	=6
!	!	!	!	!LO:TX:t=P:problem:mixed beam	!	!	!	!	!	!	!
4D\	.	8e#X/L	.	8g#/L	.	.	.	4r	.	4r	.
.	.	8f#/	.	8a/	.	.	.	.	.	.	.
8r	.	8d/	.	8f#/	.	.	.	8r	.	8r	.
8d\	.	8a/J	.	8ff#\J	.	.	.	8a\	.	8ff#\	.
=7	=7	=7	=7	=7	=7	=7	=7	=7	=7	=7	=7
!LO:LB:g=original	!	!	!	!	!	!	!	!	!	!	!
!LO:TX:t=P:problem:mixed beam	!	!	!	!	!	!	!	!	!	!	!
8c#\L	.	8a/L	.	8ee\L	.	.	.	4a\	.	(8ee\L	.
8C#/	.	8e/	.	8a\	.	.	.	.	.	8cc#\)	.
8D/	.	8f#/	.	8f#\	.	.	.	8f#\L	.	(8b\	.
8BB/J	.	8f#/J	.	8b\J	.	.	.	8b\J	.	8dd\J)	.
=8	=8	=8	=8	=8	=8	=8	=8	=8	=8	=8	=8
!	!	!LO:LB:g=original	!	!	!	!	!	!	!	!	!
8E\L	.	4c#/	.	4a/	.	.	.	4a\	.	4cc#\	.
8E\	.	.	.	.	.	.	.	.	.	.	.
8E\J	.	8B/L	.	8g#/L	.	.	.	8g#\L	.	8b\L	.
8r	.	8c#/J	.	8e/J	.	.	.	8cc#\J	.	8ee\J	.
=9	=9	=9	=9	=9	=9	=9	=9	=9	=9	=9	=9
4r	.	(8B#X/L	.	8d#X/L	.	0r	.	8b#X\L	.	(8dd#X\L	.
.	.	8c#/)	.	8e/	.	.	.	8cc#\	.	8ee\)	.
8r	.	8A/	.	8c#/	.	.	.	8a\	.	8cc#'\	.
8A\	.	8A/J	.	8c#/J	.	.	.	8a\J	.	8cc#'\J	.
=10	=10	=10	=10	=10	=10	=10	=10	=10	=10	=10	=10
!LO:TX:t=P:problem:mixed beam	!	!	!	!LO:LB:g=original	!	!	!	!LO:LB:g=original	!	!LO:LB:g=original	!
(8G#\L	.	4.A/	.	4.c#/	.	.	.	4.a\	.	4.cc#\	.
8A\)	.	.	.	.	.	.	.	.	.	.	.
8AA/J'	.	.	.	.	.	.	.	.	.	.	.
8r	.	8A/	.	8c#/	.	.	.	8a\	.	8cc#\	.
=11	=11	=11	=11	=11	=11	=11	=11	=11	=11	=11	=11
4r	.	8G#/L	.	8B#X/L	.	.	.	8g#\L	.	8b#X\L	.
.	.	8A/	.	8c#/	.	.	.	8a\	.	8cc#\	.
8r	.	8A/	.	8c#/	.	.	.	8f#\	.	8a\	.
8F#\	.	8A/J	.	8c#/J	.	.	.	8f#\J	.	8a\J	.
=12	=12	=12	=12	=12	=12	=12	=12	=12	=12	=12	=12
!LO:TX:t=P:problem:mixed beam	!	!	!	!	!	!	!	!	!	!	!
(8E#X/L	.	4.A/	.	4.c#/	.	.	.	4.f#/	.	4.a\	.
8F#/)	.	.	.	.	.	.	.	.	.	.	.
8FF#/'	.	.	.	.	.	.	.	.	.	.	.
8En\J'>	.	8c#/	.	8aa\	.	.	.	8r	.	8r	.
=13	=13	=13	=13	=13	=13	=13	=13	=13	=13	=13	=13
!	!	!	!	!	!	!	!	!LO:TX:a:t=2	!	!LO:TX:a:t=2	!
4D#X\	.	2f#/	.	(8gg#X\L	.	0r	.	1r	.	1r	.
.	.	.	.	8aa\)	.	.	.	.	.	.	.
4A\	.	.	.	8ff#'\	.	.	.	.	.	.	.
.	.	.	.	8dd#X'\J	.	.	.	.	.	.	.
=14	=14	=14	=14	=14	=14	=14	=14	=14	=14	=14	=14
4.G#\	.	4.e/	.	(8ee\L	.	.	.	.	.	.	.
.	.	.	.	8gg#\)	.	.	.	.	.	.	.
.	.	.	.	8ee'\	.	.	.	.	.	.	.
8G#\	.	8e/	.	8b'\J	.	.	.	.	.	.	.
=15	=15	=15	=15	=15	=15	=15	=15	=15	=15	=15	=15
4A\	.	8e/L	.	8cc#/L	.	.	.	8r	.	8r	.
.	.	8c#/	.	8a/	.	.	.	8a\L	.	8cc#\L	.
!LO:TX:t=P:problem:mixed beam	!	!	!	!	!	!	!	!	!	!	!
8B\L	.	8A/	.	8f#/	.	.	.	8f#\	.	8dd#X\	.
!	!	!	!	!	!	!	!	!LO:TX:t=P:problem:\8	!	!	!
8BB/J	.	8A/J	.	8d#X/J	.	.	.	8a\J	.	8dd#\J	.
=16	=16	=16	=16	=16	=16	=16	=16	=16	=16	=16	=16
!	!	!	!	!	!	!LO:N:vis=1r (jako część 00r)	!	!	!	!	!
8E\L	.	4A/	.	4f#/	.	.	.	4a\	.	4ff#\	.
8BB\	.	.	.	.	.	.	.	.	.	.	.
8E\J	.	8G#/	.	8e/	.	.	.	8g#\	.	8ee\	.
=:|!|:	=:|!|:	=:|!|:	=:|!|:	=:|!|:	=:|!|:	=:|!|:	=:|!|:	=:|!|:	=:|!|:	=:|!|:	=:|!|:
!LO:LB:g=original	!	!	!	!	!	!	!	!	!	!	!
8r	.	8g#/	.	8b/	.	.	.	8r	.	8r	.
=17	=17	=17	=17	=17	=17	=17	=17	=17	=17	=17	=17
!	!	!	!	!	!	!LO:TX:a:t=8	!	!LO:TX:a:t=7	!	!LO:TX:a:t=7	!
4r	.	8f#X/L	.	(8a#X/L	.	0r	.	0r	.	0r	.
.	.	8g#/	.	8b/)	.	.	.	.	.	.	.
8r	.	8e/	.	8g#'/	.	.	.	.	.	.	.
8d\	.	8e/J	.	8g#'/J	.	.	.	.	.	.	.
=18	=18	=18	=18	=18	=18	=18	=18	=18	=18	=18	=18
(8c#\L	.	4.e/	.	4.g#/	.	.	.	.	.	.	.
8d\)	.	.	.	.	.	.	.	.	.	.	.
8B'\	.	.	.	.	.	.	.	.	.	.	.
8G#'\J	.	8b/	.	8dd\	.	.	.	.	.	.	.
=19	=19	=19	=19	=19	=19	=19	=19	=19	=19	=19	=19
!	!	!LO:LB:g=original	!	!LO:LB:g=original	!	!	!	!	!	!	!
8A\L	.	8e/L	.	(8cc#\L	.	.	.	.	.	.	.
8B\	.	8a/	.	8dd\)	.	.	.	.	.	.	.
8c#\	.	8a/	.	8ee'\	.	.	.	.	.	.	.
8d\J	.	8a/J	.	8ff#'\J	.	.	.	.	.	.	.
=20	=20	=20	=20	=20	=20	=20	=20	=20	=20	=20	=20
!LO:TX:t=P:problem:mixed beam	!	!	!	!	!	!	!	!	!	!	!
8e\L	.	4a/	.	4cc#\	.	.	.	.	.	.	.
8E/	.	.	.	.	.	.	.	.	.	.	.
8E/J	.	8g#/L	.	8b\L	.	.	.	.	.	.	.
8r	.	8e/J	.	8b\J	.	.	.	.	.	.	.
=21	=21	=21	=21	=21	=21	=21	=21	=21	=21	=21	=21
!	!	!	!	!LO:TX:t=P:problem:mixed beam	!	!	!	!	!	!	!
2d\	.	2e/	.	(8a#X/L	.	0r	.	1r	.	1r	.
.	.	.	.	8b/)	.	.	.	.	.	.	.
.	.	.	.	8g#/	.	.	.	.	.	.	.
.	.	.	.	8ee\J	.	.	.	.	.	.	.
=22	=22	=22	=22	=22	=22	=22	=22	=22	=22	=22	=22
4.c#\	.	2e/	.	(8dd#X\L	.	.	.	.	.	.	.
.	.	.	.	8ee\)	.	.	.	.	.	.	.
!	!	!	!	!LO:TX:a:t=a	!	!	!	!	!	!	!
.	.	.	.	8aa'\	.	.	.	.	.	.	.
8B\	.	.	.	8gg#'\J	.	.	.	.	.	.	.
=23	=23	=23	=23	=23	=23	=23	=23	=23	=23	=23	=23
8A\L	.	8cc#\L	.	8ff#\L	.	.	.	2r	.	2r	.
8G#\	.	8b\	.	8ee\J	.	.	.	.	.	.	.
8F#\	.	8a\	.	16dd#X\LL	.	.	.	.	.	.	.
.	.	.	.	16b\	.	.	.	.	.	.	.
8B\J	.	8f#\J	.	16cc#\	.	.	.	.	.	.	.
.	.	.	.	16dd#\JJ	.	.	.	.	.	.	.
=24	=24	=24	=24	=24	=24	=24	=24	=24	=24	=24	=24
!	!	!	!	!	!	!	!	!	!LO:DY:a::rj	!	!
8E\L	.	4a/	.	4ff#\	.	.	.	4r	p	4r	.
8BB\	.	.	.	.	.	.	.	.	.	.	.
!	!	!	!	!LO:TX:t=P:problem:mixed beam	!	!	!	!	!	!	!
8E\J	.	8g#/L	.	8ee\L	.	.	.	8r	.	8r	.
8r	.	8c#/J	.	8e/J	.	.	.	8cc#\	.	8ee\	.
=25	=25	=25	=25	=25	=25	=25	=25	=25	=25	=25	=25
4r	.	8B#X/L	.	8d#X/L	.	4r	.	8b#X\L	.	8dd#X\L	.
.	.	8c#/	.	8e/	.	.	.	8cc#\	.	8ee\	.
!	!	!	!	!	!	!	!LO:DY:a	!	!	!	!
8r	.	8A/	.	8c#/	.	8r	p	8a\	.	8cc#\	.
8c#\	.	8A/J	.	8c#/J	.	8e\	.	8a\J	.	8cc#\J	.
=26	=26	=26	=26	=26	=26	=26	=26	=26	=26	=26	=26
!LO:LB:g=original	!	!	!	!	!	!	!	!	!	!	!
(8B#X\L	.	4.A/	.	4.c#/	.	4e\	.	4.a\	.	4.cc#\	.
8c#\)	.	.	.	.	.	.	.	.	.	.	.
8A'\J	.	.	.	.	.	8e\	.	.	.	.	.
8r	.	8f#/	.	8a/	.	8r	.	8ff#\	.	8aa\	.
=27	=27	=27	=27	=27	=27	=27	=27	=27	=27	=27	=27
4r	.	8e#X/L	.	(8g#/L	.	4r	.	8ee#X\L	.	8gg#\L	.
.	.	8f#/	.	8a/)	.	.	.	8ff#\	.	8aa\	.
8r	.	8d/	.	8f#'/	.	8r	.	8dd\	.	8ff#\	.
8F#'\	.	8d/J	.	8f#'/J	.	8d\	.	8dd\J	.	8ff#\J	.
=28	=28	=28	=28	=28	=28	=28	=28	=28	=28	=28	=28
!	!	!	!	!LO:LB:g=original	!	!	!	!LO:LB:g=original	!	!	!
(8E#X\L	.	4.d/	.	4.f#/	.	4d\	.	4.dd\	.	4.ff#\	.
8F#\)	.	.	.	.	.	.	.	.	.	.	.
8D'\	.	.	.	.	.	8d\	.	.	.	.	.
!	!	!	!	!	!	!	!	!	!	!LO:TX:a:t=f	!
8B'\J	.	8d/	.	8d/	.	8r	.	8b\	.	8dd\	.
=29	=29	=29	=29	=29	=29	=29	=29	=29	=29	=29	=29
!	!	!	!	!LO:TX:t=P:problem:mixed beam	!	!	!	!	!	!LO:LB:g=original	!
2G#\	.	2B/ 2e	.	(8e/L	.	2e\	.	2e/	.	2b\	.
.	.	.	.	8ee\	.	.	.	.	.	.	.
.	.	.	.	8dd#X\	.	.	.	.	.	.	.
.	.	.	.	8ddn\J)	.	.	.	.	.	.	.
=30	=30	=30	=30	=30	=30	=30	=30	=30	=30	=30	=30
4A\	.	4c#/ 4e	.	(8cc#\L	.	2e\	.	4e/	.	4cc#\	.
.	.	.	.	8aa\	.	.	.	.	.	.	.
4C#/	.	4a/	.	8ee\)	.	.	.	4a\	.	4ee\	.
.	.	.	.	8cc#\J	.	.	.	.	.	.	.
=31	=31	=31	=31	=31	=31	=31	=31	=31	=31	=31	=31
4D\	.	8a/L	.	(8ff#\L	.	4f#\	.	4a\	.	4ff#\	.
.	.	8f#/	.	8dd\)	.	.	.	.	.	.	.
8E\L	.	8d/	.	8b'\	.	8r	.	8r	.	8r	.
8E\J	.	8B/J	.	8g#'\J	.	8e\	.	8b\	.	8gg#\	.
=32	=32	=32	=32	=32	=32	=32	=32	=32	=32	=32	=32
!LO:TX:t=P:problem:mixed beam	!	!LO:LB:g=original	!	!	!	!LO:LB:g=original	!	!	!	!	!
8A\L	.	4d/	.	4b/	.	4e\	.	4dd\	.	4gg#\	.
8E\	.	.	.	.	.	.	.	.	.	.	.
8AA/J	.	8c#/	.	8a/	.	8e\	.	8cc#\	.	8aa\	.
=:|!|:	=:|!|:	=:|!|:	=:|!|:	=:|!|:	=:|!|:	=:|!|:	=:|!|:	=:|!|:	=:|!|:	=:|!|:	=:|!|:
*k[]	*	*k[]	*	*k[]	*	*k[f#c#]	*	*k[]	*	*k[]	*
*	*	*	*	*kcancel	*	*	*	*	*	*	*
!LO:TX:a:t=minor	!	!LO:TX:a:t=Minor:rj	!	!LO:TX:a:t=minor:rj	!	!	!	!LO:TX:a:t=minor	!	!LO:TX:a:t=Minor	!
8r	.	8a/	.	8cc\	.	8r	.	8r	.	8r	.
=33	=33	=33	=33	=33	=33	=33	=33	=33	=33	=33	=33
!	!	!	!	!	!	!LO:TX:a:t=11	!	!LO:TX:a:t=1	!	!LO:TX:a:t=1	!
2r	.	8g#X/L	.	(8b\L	.	0r	.	2r	.	2r	.
.	.	8a/	.	8cc\)	.	.	.	.	.	.	.
.	.	8c/	.	8a'\	.	.	.	.	.	.	.
.	.	8cc/J	.	8ee'\J	.	.	.	.	.	.	.
=34	=34	=34	=34	=34	=34	=34	=34	=34	=34	=34	=34
4r	.	8b\L	.	(8dd#X\L	.	.	.	4r	.	4r	.
.	.	8cc\	.	8ee\)	.	.	.	.	.	.	.
!	!LO:DY:a:t=p.	!	!	!	!	!	!	!	!	!	!
8r	p	8a\	.	8cc'\	.	.	.	8r	.	8r	.
8A\	.	8cc\J	.	8ee'\J	.	.	.	8a\	.	8cc\	.
=35	=35	=35	=35	=35	=35	=35	=35	=35	=35	=35	=35
(8G#X\L	.	2B/ 2d	.	2e/	.	.	.	2b\	.	2dd\	.
8B\)	.	.	.	.	.	.	.	.	.	.	.
8E'\	.	.	.	.	.	.	.	.	.	.	.
8G#'\J	.	.	.	.	.	.	.	.	.	.	.
=36	=36	=36	=36	=36	=36	=36	=36	=36	=36	=36	=36
(8A\L	.	4.c/	.	4.e/	.	.	.	2a\	.	2cc\	.
8c\)	.	.	.	.	.	.	.	.	.	.	.
8E'\	.	.	.	.	.	.	.	.	.	.	.
8A'\J	.	8e/	.	16dd\LL	.	.	.	.	.	.	.
.	.	.	.	16cc\JJ	.	.	.	.	.	.	.
=37	=37	=37	=37	=37	=37	=37	=37	=37	=37	=37	=37
!LO:TX:t=P:problem:mixed beam	!	!	!	!LO:LB:g=original	!	!	!	!	!	!	!
8E\L	.	8g#X/L	.	8b\L	.	0r	.	8g#\L	.	8b\L	.
8E\	.	8g#/	.	8b\J	.	.	.	8g#\	.	8b\	.
.	.	.	.	8qdd/	.	.	.	.	.	.	.
8A\	.	8e/	.	8cc\L	.	.	.	8a\	.	8cc\	.
8AA/J	.	8c/J	.	16b\L	.	.	.	8a\J	.	8cc\J	.
.	.	.	.	16a\JJ	.	.	.	.	.	.	.
=38	=38	=38	=38	=38	=38	=38	=38	=38	=38	=38	=38
8E\L	.	4g#X/	.	4b\	.	.	.	8g#\L	.	8b\L	.
8E\	.	.	.	.	.	.	.	8g#\	.	8b\	.
8E\J	.	8r	.	8r	.	.	.	8g#\J	.	8b\J	.
8r	.	8a/	.	8cc\	.	.	.	8r	.	8r	.
=39	=39	=39	=39	=39	=39	=39	=39	=39	=39	=39	=39
!	!	!	!	!	!	!	!	!LO:TX:a:t=1	!	!LO:TX:a:t=1	!
2r	.	8g#X/L	.	(8b\L	.	.	.	2r	.	2r	.
.	.	8a/	.	8cc\)	.	.	.	.	.	.	.
.	.	8c/	.	8a'\	.	.	.	.	.	.	.
.	.	8cc/J	.	8ee'\J	.	.	.	.	.	.	.
=40	=40	=40	=40	=40	=40	=40	=40	=40	=40	=40	=40
!	!	!LO:TX:t=P:problem:mixed beam	!	!	!	!	!	!LO:LB:g=original	!	!	!
4r	.	8b\L	.	(8dd#X\L	.	.	.	4r	.	4r	.
.	.	8cc\	.	8ee\)	.	.	.	.	.	.	.
8r	.	8a\	.	8cc'\	.	.	.	8r	.	8r	.
8A\	.	8c/J	.	8ee'\J	.	.	.	8cc\	.	8ee\	.
=41	=41	=41	=41	=41	=41	=41	=41	=41	=41	=41	=41
(8G#X\L	.	2c/	.	2fn/	.	1r	.	2cc\	.	2ff\	.
8A\)	.	.	.	.	.	.	.	.	.	.	.
8F'\	.	.	.	.	.	.	.	.	.	.	.
8A'\J	.	.	.	.	.	.	.	.	.	.	.
=42	=42	=42	=42	=42	=42	=42	=42	=42	=42	=42	=42
!	!	!LO:LB:g=original	!	!	!	!	!	!	!	!LO:LB:g=original	!
(8A#X\L	.	4.d/	.	4.f/	.	.	.	4.dd\	.	4.ff\	.
8B\)	.	.	.	.	.	.	.	.	.	.	.
8G'\	.	.	.	.	.	.	.	.	.	.	.
8B'\J	.	8G/	.	8d/	.	.	.	8b\	.	8dd\	.
=43	=43	=43	=43	=43	=43	=43	=43	=43	=43	=43	=43
8c\L	.	8e/L	.	8g/L	.	2r	.	8g/L	.	8ee\L	.
8F\	.	8d/	.	8f/	.	.	.	8f/	.	8dd\	.
8G\	.	8c/	.	8e/	.	.	.	8e/	.	8cc\	.
8G\J	.	8B/J	.	8d/J	.	.	.	8d/J	.	8b\J	.
=44	=44	=44	=44	=44	=44	=44	=44	=44	=44	=44	=44
!LO:LB:g=original	!	!	!	!	!	!	!	!	!	!	!
8c\L	.	4B/	.	4f/	.	4r	.	4f/	.	4dd\	.
8G\	.	.	.	.	.	.	.	.	.	.	.
8C\J	.	8c/	.	8e/	.	8r	.	8e/	.	8cc\	.
=:|!|:	=:|!|:	=:|!|:	=:|!|:	=:|!|:	=:|!|:	=:|!|:	=:|!|:	=:|!|:	=:|!|:	=:|!|:	=:|!|:
!	!	!	!	!LO:TX:a:t=dol	!	!	!	!	!	!	!
8r	.	8r	.	8ee\	.	8r	.	8r	.	8r	.
=45	=45	=45	=45	=45	=45	=45	=45	=45	=45	=45	=45
!	!LO:DY:a:t=pp.:rj	!	!	!	!	!LO:TX:a:t=21	!	!LO:TX:a:t=1	!	!LO:TX:a:t=1	!
4c\	pp	8e/L	.	(8dd#X\L	.	0r	.	2r	.	2r	.
.	.	8G/	.	8ee\)	.	.	.	.	.	.	.
4r	.	8e/	.	8cc'\	.	.	.	.	.	.	.
.	.	8G/J	.	8ee'\J	.	.	.	.	.	.	.
=46	=46	=46	=46	=46	=46	=46	=46	=46	=46	=46	=46
!	!	!	!	!LO:LB:g=original	!	!	!	!	!	!	!
!	!	!	!	!LO:TX:t=P:problem:/4.	!	!	!	!	!LO:DY:a:t=p.:rj	!	!
4B\	.	8f/L	.	4.gg\	.	.	.	8r	p	8r	.
!	!	!	!	!	!	!	!	!	!	!	!LO:DY:a:rj
.	.	8G/	.	.	.	.	.	8b\L	.	8dd\L	pp
4r	.	8f/	.	.	.	.	.	8dd\	.	8ff\	.
.	.	8G/J	.	16ff\LL	.	.	.	8b\J	.	8dd\J	.
.	.	.	.	16dd\JJ	.	.	.	.	.	.	.
=47	=47	=47	=47	=47	=47	=47	=47	=47	=47	=47	=47
4c\	.	8e/L	.	(8dd#X\L	.	.	.	4cc\	.	4ee\	.
.	.	8G/	.	8ee\)	.	.	.	.	.	.	.
4r	.	8e/	.	8ee'\	.	.	.	4r	.	4r	.
.	.	8G/J	.	8ee'\J	.	.	.	.	.	.	.
=48	=48	=48	=48	=48	=48	=48	=48	=48	=48	=48	=48
4G\	.	8d/L	.	(4.ff\	.	.	.	8r	.	8r	.
.	.	8G/	.	.	.	.	.	8b\L	.	8dd\L	.
4r	.	8d/	.	.	.	.	.	8b\	.	8dd\	.
.	.	8G/J	.	8dd\)	.	.	.	8b\J	.	8dd\J	.
=49	=49	=49	=49	=49	=49	=49	=49	=49	=49	=49	=49
4c\	.	8e/L	.	(8dd#X\L	.	0r	.	4cc\	.	4ee\	.
.	.	8G/	.	8ee\J)	.	.	.	.	.	.	.
4r	.	8e/	.	(16cc\LL	.	.	.	4r	.	4r	.
.	.	.	.	16dd#\)	.	.	.	.	.	.	.
.	.	8G/J	.	16ee'\	.	.	.	.	.	.	.
.	.	.	.	16ff'\JJ	.	.	.	.	.	.	.
=50	=50	=50	=50	=50	=50	=50	=50	=50	=50	=50	=50
4B\	.	8f/L	.	(16aa\LL	.	.	.	8r	.	8r	.
.	.	.	.	16gg\	.	.	.	.	.	.	.
.	.	8G/	.	16ff#X\	.	.	.	8b\L	.	8dd\L	.
.	.	.	.	16gg\JJ)	.	.	.	.	.	.	.
4r	.	8f/	.	8dd\L	.	.	.	8dd\	.	8ff\	.
.	.	8G/J	.	8ffn\J	.	.	.	8b\J	.	8dd\J	.
=51	=51	=51	=51	=51	=51	=51	=51	=51	=51	=51	=51
4c\	.	8e/L	.	(16ff\LL	.	.	.	4cc\	.	4ee\	.
.	.	.	.	16ee\	.	.	.	.	.	.	.
.	.	8G/	.	16dd\)	.	.	.	.	.	.	.
.	.	.	.	16cc\JJ	.	.	.	.	.	.	.
4r	.	8e/	.	(16b\LL	.	.	.	4r	.	4r	.
.	.	.	.	16cc\	.	.	.	.	.	.	.
.	.	8G/J	.	16dd\	.	.	.	.	.	.	.
.	.	.	.	16ee\JJ)	.	.	.	.	.	.	.
=52	=52	=52	=52	=52	=52	=52	=52	=52	=52	=52	=52
!	!	!	!	!	!	!	!	!LO:LB:g=original	!	!	!
4G\	.	8d/L	.	4.ff\	.	.	.	8r	.	8r	.
.	.	8G/	.	.	.	.	.	8b\L	.	8dd\L	.
4r	.	8d/	.	.	.	.	.	8b\J	.	8dd\J	.
.	.	8G/J	.	8dd\	.	.	.	8r	.	8r	.
=53	=53	=53	=53	=53	=53	=53	=53	=53	=53	=53	=53
!	!	!	!	!	!	!	!	!LO:TX:a:t=7	!	!LO:TX:a:t=7	!
8r	.	8r	.	(4.ee\	.	0r	.	0r	.	0r	.
!	!LO:DY:a:t=pi.:rj	!	!	!	!	!	!	!	!	!	!
8c'\L	p	8g/L	.	.	.	.	.	.	.	.	.
(8c\	.	8g/	.	.	.	.	.	.	.	.	.
8B\J)	.	8g#X/J	.	8dd\)	.	.	.	.	.	.	.
=54	=54	=54	=54	=54	=54	=54	=54	=54	=54	=54	=54
!LO:LB:g=original	!	!LO:LB:g=original	!	!	!	!	!	!	!	!	!
8r	.	8r	.	4.cc\	.	.	.	.	.	.	.
8A'\L	.	8e/L	.	.	.	.	.	.	.	.	.
(8A\	.	8e/	.	.	.	.	.	.	.	.	.
8G\J)	.	8e/J	.	8b\	.	.	.	.	.	.	.
=55	=55	=55	=55	=55	=55	=55	=55	=55	=55	=55	=55
!	!	!	!	!LO:LB:g=original	!	!	!	!	!	!	!
2F\	.	2d#X/	.	(8dd\L	.	.	.	.	.	.	.
.	.	.	.	8cc\)	.	.	.	.	.	.	.
.	.	.	.	8b\	.	.	.	.	.	.	.
.	.	.	.	8a\J	.	.	.	.	.	.	.
=56	=56	=56	=56	=56	=56	=56	=56	=56	=56	=56	=56
4E\	.	4e/	.	8.g#X/L	.	.	.	.	.	.	.
.	.	.	.	16a/Jk	.	.	.	.	.	.	.
8r	.	8r	.	16b\LL	.	.	.	.	.	.	.
.	.	.	.	16cc\	.	.	.	.	.	.	.
8G#X\	.	8e/	.	16dd\	.	.	.	.	.	.	.
.	.	.	.	16ee\JJ	.	.	.	.	.	.	.
=57	=57	=57	=57	=57	=57	=57	=57	=57	=57	=57	=57
4A\	.	4e/	.	16dd\LL	.	0r	.	1r	.	1r	.
.	.	.	.	16cc\	.	.	.	.	.	.	.
.	.	.	.	16b\	.	.	.	.	.	.	.
.	.	.	.	16cc\JJ	.	.	.	.	.	.	.
4F\	.	4d#X/	.	16b/LL	.	.	.	.	.	.	.
.	.	.	.	16a/	.	.	.	.	.	.	.
.	.	.	.	16g#X/	.	.	.	.	.	.	.
.	.	.	.	16a/JJ	.	.	.	.	.	.	.
=58	=58	=58	=58	=58	=58	=58	=58	=58	=58	=58	=58
!	!	!	!	!LO:TX:t=P:problem:mixed beam	!	!	!	!	!	!	!
8E\L	.	8e/L	.	8g#X/L	.	.	.	.	.	.	.
8E\	.	8e/	.	8e/	.	.	.	.	.	.	.
8E\J	.	8e/	.	8e/	.	.	.	.	.	.	.
8r	.	8a/J	.	8cc\J	.	.	.	.	.	.	.
=59	=59	=59	=59	=59	=59	=59	=59	=59	=59	=59	=59
2r	.	8g#X/L	.	(8b\L	.	.	.	2r	.	2r	.
.	.	8a/	.	8cc\)	.	.	.	.	.	.	.
.	.	8c/	.	8a'\	.	.	.	.	.	.	.
.	.	8cc/J	.	8ee'\J	.	.	.	.	.	.	.
=60	=60	=60	=60	=60	=60	=60	=60	=60	=60	=60	=60
!	!	!	!	!LO:TX:t=P:problem:mixed beam	!	!	!	!	!	!LO:LB:g=original	!
4r	.	8b\L	.	(8dd#X\L	.	.	.	4r	.	4r	.
.	.	8cc\	.	8ee\)	.	.	.	.	.	.	.
8r	.	8a\	.	8cc'\	.	.	.	8r	.	8r	.
8A\	.	8c\J	.	8e/J	.	.	.	8cc\	.	8ee\	.
=61	=61	=61	=61	=61	=61	=61	=61	=61	=61	=61	=61
!LO:TX:t=P:problem:mixed beam	!	!	!	!	!	!	!	!	!	!	!
(8G#X\L	.	2c/	.	2f/	.	0r	.	2cc\	.	2ff\	.
8A\)	.	.	.	.	.	.	.	.	.	.	.
8AA'/	.	.	.	.	.	.	.	.	.	.	.
8A'\J	.	.	.	.	.	.	.	.	.	.	.
=62	=62	=62	=62	=62	=62	=62	=62	=62	=62	=62	=62
(8A\L	.	2B/	.	2f#X/	.	.	.	2b\	.	2dd#X\	.
8B\)	.	.	.	.	.	.	.	.	.	.	.
8F#X'\	.	.	.	.	.	.	.	.	.	.	.
8B'\J	.	.	.	.	.	.	.	.	.	.	.
=63	=63	=63	=63	=63	=63	=63	=63	=63	=63	=63	=63
!LO:LB:g=original	!	!	!	!	!	!	!	!	!	!	!
(8G#X\L	.	2B/	.	4.e/	.	.	.	4.b\	.	4.ee\	.
8B\)	.	.	.	.	.	.	.	.	.	.	.
8E'\	.	.	.	.	.	.	.	.	.	.	.
8G#'\J	.	.	.	8dd\	.	.	.	8b\	.	8dd#X\	.
=64	=64	=64	=64	=64	=64	=64	=64	=64	=64	=64	=64
!	!	!	!	!LO:LB:g=original	!	!	!	!	!	!	!
8A\	.	8c/ 8e	.	(8cc\L	.	.	.	8cc\	.	8ee\	.
8r	.	8r	.	8ee\)	.	.	.	8r	.	8r	.
8E\	.	8B/ 8e	.	8b'\	.	.	.	8b\	.	8ee\	.
8r	.	8r	.	8ee'\J	.	.	.	8r	.	8r	.
=65	=65	=65	=65	=65	=65	=65	=65	=65	=65	=65	=65
8A\L	.	8e/L	.	8cc\L	.	2r	.	8cc\L	.	8ee\L	.
8D\	.	8d/	.	8b\	.	.	.	8b\	.	8dd\	.
8E\	.	8c/	.	8a\	.	.	.	8a\	.	8cc\	.
8E\J	.	8B/J	.	8g#X\J	.	.	.	8e\J	.	8b\J	.
=66	=66	=66	=66	=66	=66	=66	=66	=66	=66	=66	=66
!	!	!LO:LB:g=original	!	!	!	!	!	!	!	!	!
8A\L	.	4d/	.	4b/	.	4r	.	4d/	.	4b\	.
8E\	.	.	.	.	.	.	.	.	.	.	.
8AA\J	.	8c/	.	8a/	.	8r	.	8c/	.	8a\	.
=:|!	=:|!	=:|!	=:|!	=:|!	=:|!	=:|!	=:|!	=:|!	=:|!	=:|!	=:|!
*k[f#c#g#]	*	*k[f#c#g#]	*	*k[f#c#g#]	*	*k[f#c#]	*	*k[f#c#g#]	*	*k[f#c#g#]	*
!	!	!LO:TX:a:t=Maior	!	!LO:TX:a:t=Maior	!	!	!	!LO:TX:a:t=Maior:rj	!	!LO:TX:a:t=Maior:rj	!
8r	.	8c#/	.	8e/	.	8r	.	8cc#\	.	8ee\	.
=67	=67	=67	=67	=67	=67	=67	=67	=67	=67	=67	=67
4r	.	8B#X/L	.	(8d#X/L	.	4r	.	8b#X\L	.	(8dd#X\L	.
.	.	8c#/	.	8e/)	.	.	.	8cc#\	.	8ee\)	.
8r	.	8A/	.	8c#/	.	8r	.	8a\	.	8cc#\	.
!	!	!	!	!	!	!	!LO:DY:a	!	!	!	!
8A\	.	8A/J	.	8c#/J	.	8e\	p	8a\J	.	8cc#\J	.
=68	=68	=68	=68	=68	=68	=68	=68	=68	=68	=68	=68
!LO:TX:t=P:problem:mixed beam	!	!	!	!	!	!	!	!LO:LB:g=original	!	!	!
(8G#\L	.	4.A/	.	4.c#/	.	4e\	.	4.a\	.	4.cc#\	.
8A\)	.	.	.	.	.	.	.	.	.	.	.
8AA/J	.	.	.	.	.	8e\	.	.	.	.	.
8r	.	8B/	.	8dn/	.	8r	.	8b\	.	8dd\	.
=69	=69	=69	=69	=69	=69	=69	=69	=69	=69	=69	=69
4r	.	8A#X/L	.	(8c#/L	.	4r	.	8a#X\L	.	(8cc#\L	.
.	.	8B/	.	8d/)	.	.	.	8b\	.	8dd\)	.
8r	.	8G#/	.	8B/	.	8r	.	8g#\	.	8b\	.
8E\	.	8G#/J	.	8B/J	.	8e\	.	8g#\J	.	8b\J	.
=70	=70	=70	=70	=70	=70	=70	=70	=70	=70	=70	=70
!LO:TX:t=P:problem:mixed beam	!	!	!	!	!	!LO:LB:g=original	!	!	!	!LO:LB:g=original	!
(8D#X\L	.	4.G#/	.	4.B/	.	4e\	.	4.g#\	.	4.b\	.
8E\)	.	.	.	.	.	.	.	.	.	.	.
8EE/J	.	.	.	.	.	8e\	.	.	.	.	.
8r	.	8A/	.	8c#/	.	8r	.	8a\	.	8cc#\	.
=71	=71	=71	=71	=71	=71	=71	=71	=71	=71	=71	=71
!LO:LB:g=original	!	!	!	!	!	!LO:TX:a:t=1	!	!LO:TX:t=P:problem:mixed beam	!	!	!
4AA/	.	8G#/L	.	(8B#X/L	.	2r	.	8g#\L	.	(8b#X\L	.
.	.	8A/	.	8c#/)	.	.	.	8a\	.	8cc#\)	.
4r	.	8A/	.	8A/	.	.	.	8c#/J	.	8a\J	.
.	.	8f#/J	.	8a/J	.	.	.	8r	.	8r	.
=72	=72	=72	=72	=72	=72	=72	=72	=72	=72	=72	=72
!	!	!	!	!LO:TX:t=P:problem:mixed beam	!	!	!	!	!	!	!
4D\	.	8e#X/L	.	8g#/L	.	4r	.	4r	.	4r	.
.	.	8f#/	.	8a/	.	.	.	.	.	.	.
8r	.	8d/	.	8f#/	.	8r	.	8r	.	8r	.
8d\	.	8a/J	.	8ff#\J	.	8f#\	.	8a\	.	8ff#\	.
=73	=73	=73	=73	=73	=73	=73	=73	=73	=73	=73	=73
!LO:TX:t=P:problem:mixed beam	!	!	!	!	!	!	!	!	!	!	!
8c#\L	.	8a/L	.	8ee\L	.	4e\	.	4a\	.	(8ee\L	.
8AA/	.	8e/	.	8a\	.	.	.	.	.	8cc#\)	.
8D/	.	8f#/	.	8f#\	.	8f#\L	.	8f#\L	.	(8b\	.
8BB/J	.	8f#/J	.	8b\J	.	8f#\J	.	8b\J	.	8dd\J)	.
=74	=74	=74	=74	=74	=74	=74	=74	=74	=74	=74	=74
!	!	!	!	!LO:LB:g=original	!	!	!	!	!	!	!
8E\L	.	4c#/	.	4a/	.	8e\L	.	4a\	.	4cc#\	.
8E\	.	.	.	.	.	8e\	.	.	.	.	.
8E\J	.	8B/L	.	8g#/L	.	8e\J	.	8g#\L	.	8b\L	.
8r	.	8c#/J	.	8e/J	.	8r	.	8cc#\J	.	8ee\J	.
=75	=75	=75	=75	=75	=75	=75	=75	=75	=75	=75	=75
4r	.	8B#X/L	.	8d#X/L	.	4r	.	8b#X\L	.	8dd#X\L	.
.	.	8c#/	.	8e/	.	.	.	8cc#\	.	8ee\	.
8r	.	8A/	.	8c#/	.	4e\	.	8a\	.	8cc#\	.
8A\	.	8A/J	.	8c#/J	.	.	.	8a\J	.	8cc#\J	.
=76	=76	=76	=76	=76	=76	=76	=76	=76	=76	=76	=76
!LO:TX:t=P:problem:mixed beam	!	!	!	!	!	!	!	!	!	!	!
(8G#\L	.	4.A/	.	4.c#/	.	4e\	.	4.a\	.	4.cc#\	.
8A\)	.	.	.	.	.	.	.	.	.	.	.
8AA'/J	.	.	.	.	.	8e\	.	.	.	.	.
8r	.	8A/	.	8c#/	.	8r	.	8a\	.	8cc#\	.
=77	=77	=77	=77	=77	=77	=77	=77	=77	=77	=77	=77
!	!	!LO:LB:g=original	!	!	!	!	!	!	!	!	!
4r	.	8G#/L	.	(8B#X/L	.	4r	.	8g#\L	.	8b#X\L	.
.	.	8A/	.	8c#/)	.	.	.	8a\	.	8cc#\	.
8r	.	8A/	.	8c#'/	.	8r	.	8f#\	.	8a\	.
8F#\	.	8A/J	.	8c#'/J	.	8f#\	.	8f#\J	.	8a\J	.
=78	=78	=78	=78	=78	=78	=78	=78	=78	=78	=78	=78
!LO:TX:t=P:problem:mixed beam	!	!	!	!	!	!	!	!	!	!	!
8E#X\L	.	4.A/	.	4.c#/	.	4f#\	.	4.f#/	.	4.a\	.
8F#\	.	.	.	.	.	.	.	.	.	.	.
8FF#/	.	.	.	.	.	8f#\	.	.	.	.	.
8En\J	.	8c#/	.	8aa\	.	8r	.	8r	.	8r	.
=79	=79	=79	=79	=79	=79	=79	=79	=79	=79	=79	=79
!	!	!	!	!	!	!	!	!LO:LB:g=original	!	!	!
!	!	!	!	!	!	!LO:TX:a:t=2	!	!LO:TX:a:t=2	!	!LO:TX:a:t=2	!
4D#X\	.	2f#/	.	(8gg#X\L	.	1r	.	1r	.	1r	.
.	.	.	.	8aa\)	.	.	.	.	.	.	.
4A\	.	.	.	8ff#'\	.	.	.	.	.	.	.
.	.	.	.	8dd#X'\J	.	.	.	.	.	.	.
=80	=80	=80	=80	=80	=80	=80	=80	=80	=80	=80	=80
!LO:LB:g=original	!	!	!	!	!	!	!	!	!	!	!
4.G#\	.	4.e/	.	(8ee\L	.	.	.	.	.	.	.
.	.	.	.	8gg#\)	.	.	.	.	.	.	.
.	.	.	.	8ee'\	.	.	.	.	.	.	.
8G#\	.	8e/	.	8b'\J	.	.	.	.	.	.	.
=81	=81	=81	=81	=81	=81	=81	=81	=81	=81	=81	=81
4A\	.	8e/L	.	8cc#/L	.	4r	.	8r	.	8r	.
.	.	8c#/	.	8a/	.	.	.	8a\L	.	8cc#\L	.
!LO:TX:t=P:problem:mixed beam	!	!	!	!	!	!	!	!	!	!	!
8B\L	.	8A/	.	8f#/	.	8r	.	8f#\	.	8dd#X\	.
8BB/J	.	8A/J	.	8d#X/J	.	8f#\	.	8a\J	.	8dd#\J	.
=82	=82	=82	=82	=82	=82	=82	=82	=82	=82	=82	=82
!	!	!	!	!	!	!LO:LB:g=original	!	!	!	!LO:LB:g=original	!
8E\L	.	4A/	.	4f#/	.	4f#\	.	4a\	.	4ff#\	.
8BB\	.	.	.	.	.	.	.	.	.	.	.
8E\J	.	8G#/L	.	8e/L	.	8e\	.	8g#\	.	8ee\	.
8r	.	8g#/J	.	8b/J	.	8r	.	8r	.	8r	.
=83	=83	=83	=83	=83	=83	=83	=83	=83	=83	=83	=83
!	!	!	!	!	!	!LO:TX:a:t=8	!	!LO:TX:a:t=7	!	!LO:TX:a:t=7	!
4r	.	8f#X/L	.	(8a#X/L	.	0r	.	0r	.	0r	.
.	.	8g#/	.	8b/J)	.	.	.	.	.	.	.
8r	.	8e/	.	8g#'/L	.	.	.	.	.	.	.
8d\	.	8e/J	.	8g#'/J	.	.	.	.	.	.	.
=84	=84	=84	=84	=84	=84	=84	=84	=84	=84	=84	=84
!	!	!	!	!LO:LB:g=original	!	!	!	!	!	!	!
(8c#\L	.	4.e/	.	(4.g#/	.	.	.	.	.	.	.
8d\)	.	.	.	.	.	.	.	.	.	.	.
8B'\	.	.	.	.	.	.	.	.	.	.	.
8G#'\J	.	8b\	.	8dd\)	.	.	.	.	.	.	.
=85	=85	=85	=85	=85	=85	=85	=85	=85	=85	=85	=85
8A\L	.	8e/L	.	(8cc#\L	.	.	.	.	.	.	.
8B\	.	8a/	.	8dd\)	.	.	.	.	.	.	.
8c#\	.	8a/	.	8ee'\	.	.	.	.	.	.	.
8d\J	.	8a/J	.	8ff#'\J	.	.	.	.	.	.	.
=86	=86	=86	=86	=86	=86	=86	=86	=86	=86	=86	=86
!LO:TX:t=P:problem:mixed beam	!	!	!	!	!	!	!	!	!	!	!
8e\L	.	4a/	.	4cc#\	.	.	.	.	.	.	.
8E/	.	.	.	.	.	.	.	.	.	.	.
8E/J	.	8g#/L	.	8b\L	.	.	.	.	.	.	.
8r	.	8e/J	.	8b\J	.	.	.	.	.	.	.
=87	=87	=87	=87	=87	=87	=87	=87	=87	=87	=87	=87
!	!	!	!	!LO:TX:t=P:problem:mixed beam	!	!	!	!	!	!	!
2d\	.	2e/	.	(8a#X/L	.	0r	.	1r	.	1r	.
.	.	.	.	8b/)	.	.	.	.	.	.	.
.	.	.	.	8g#'/	.	.	.	.	.	.	.
.	.	.	.	8ee'\J	.	.	.	.	.	.	.
=88	=88	=88	=88	=88	=88	=88	=88	=88	=88	=88	=88
(4.c#\	.	2e/	.	(8dd#X\L	.	.	.	.	.	.	.
.	.	.	.	8ee\)	.	.	.	.	.	.	.
.	.	.	.	8aa'\	.	.	.	.	.	.	.
8B\)	.	.	.	8gg#'\J	.	.	.	.	.	.	.
=89	=89	=89	=89	=89	=89	=89	=89	=89	=89	=89	=89
!LO:LB:g=original	!	!	!	!	!	!	!	!	!	!	!
8A\L	.	8cc#\L	.	8ff#\L	.	.	.	2r	.	2r	.
8G#\	.	8b\	.	8ee\J	.	.	.	.	.	.	.
!	!	!	!	!LO:TX:t=P:problem:# above	!	!	!	!	!	!	!
.	.	.	.	8qee/	.	.	.	.	.	.	.
8F#\	.	8a\	.	8dd#X\L	.	.	.	.	.	.	.
8BB\J	.	8f#\J	.	16cc#\L	.	.	.	.	.	.	.
.	.	.	.	16dd#\JJ	.	.	.	.	.	.	.
=90	=90	=90	=90	=90	=90	=90	=90	=90	=90	=90	=90
8E\L	.	4a/	.	4ff#\	.	.	.	4r	.	4r	.
8BB\	.	.	.	.	.	.	.	.	.	.	.
!	!	!	!	!LO:TX:t=P:problem:mixed beam	!	!	!	!	!	!	!
8E\J	.	8g#/L	.	8ee\L	.	.	.	8r	.	8r	.
8r	.	8c#/J	.	8e/J	.	.	.	8cc#\	.	8ee\	.
=91	=91	=91	=91	=91	=91	=91	=91	=91	=91	=91	=91
!	!	!LO:LB:g=original	!	!	!LO:DY:a:t=for:rj	!	!LO:DY:a	!	!	!	!
4r	.	8B#X/L	.	8d#X/L	f	4r	p	8b#X\L	.	8dd#X\L	.
.	.	8c#/	.	8e/	.	.	.	8cc#\	.	8ee\	.
8r	.	8A/	.	8c#/	.	8r	.	8a\	.	8cc#\	.
8c#\	.	8A/J	.	8c#/J	.	8e\	.	8a\J	.	8cc#\J	.
=92	=92	=92	=92	=92	=92	=92	=92	=92	=92	=92	=92
(8B#X\L	.	4.A/	.	4.c#/	.	4e\	.	4.a\	.	4.cc#\	.
8c#\)	.	.	.	.	.	.	.	.	.	.	.
8A'\J	.	.	.	.	.	8e\	.	.	.	.	.
8r	.	8f#/	.	8a/	.	8r	.	8ff#\	.	8aa\	.
=93	=93	=93	=93	=93	=93	=93	=93	=93	=93	=93	=93
4r	.	8e#X/L	.	(8g#/L	.	4r	.	8ee#X\L	.	8gg#\L	.
.	.	8f#/	.	8a/)	.	.	.	8ff#\	.	8aa\	.
8r	.	8d/	.	8f#'/	.	8r	.	8dd\	.	8ff#\	.
8F#\	.	8d/J	.	8f#'/J	.	8d\	.	8dd\J	.	8ff#\J	.
=94	=94	=94	=94	=94	=94	=94	=94	=94	=94	=94	=94
!	!	!	!	!LO:LB:g=original	!	!	!	!	!	!	!
8E#X\L	.	4.d/	.	4.f#/	.	4d\	.	4.dd\	.	4.ff#\	.
8F#\	.	.	.	.	.	.	.	.	.	.	.
8D\	.	.	.	.	.	8d\	.	.	.	.	.
8B\J	.	8d/	.	8dd\	.	8r	.	8b\	.	8dd\	.
=95	=95	=95	=95	=95	=95	=95	=95	=95	=95	=95	=95
!	!	!LO:TX:t=x:b	!	!	!	!	!	!	!	!	!
2G#\	.	2B/ 2e	.	(8b\L	.	2e\	.	2e/	.	2b\	.
.	.	.	.	8ee\	.	.	.	.	.	.	.
.	.	.	.	8dd#X\	.	.	.	.	.	.	.
.	.	.	.	8ddn\J)	.	.	.	.	.	.	.
=96	=96	=96	=96	=96	=96	=96	=96	=96	=96	=96	=96
4A\	.	4c#/ 4e	.	(8cc#\L	.	2e\	.	4e/	.	4cc#\	.
.	.	.	.	8aa\	.	.	.	.	.	.	.
4C#/	.	4a/	.	8ee\	.	.	.	4a\	.	4ee\	.
.	.	.	.	8cc#\J)	.	.	.	.	.	.	.
=97	=97	=97	=97	=97	=97	=97	=97	=97	=97	=97	=97
!LO:LB:g=original	!	!	!	!	!	!	!	!	!	!	!
4D\	.	8a/L	.	(8ff#\L	.	4f#\	.	4a\	.	4ff#\	.
.	.	8f#/	.	8dd\)	.	.	.	.	.	.	.
8E\L	.	8d/	.	8b'\	.	8r	.	8r	.	8r	.
8E\J	.	8B/J	.	8g#'\J	.	8e\	.	8b\	.	8gg#\	.
=98	=98	=98	=98	=98	=98	=98	=98	=98	=98	=98	=98
!LO:TX:t=P:problem:mixed beam	!	!	!	!	!	!	!	!LO:LB:g=original	!	!	!
8A\L	.	4d/	.	4b/	.	4e\	.	4dd\	.	4gg#\	.
8E\	.	.	.	.	.	.	.	.	.	.	.
!	!	!	!	!LO:TX:t=P:problem:mixed beam	!	!	!	!	!	!	!
8AA/J	.	8c#/	.	8a/L	.	8e\	.	8cc#\	.	8aa\	.
!	!	!	!	!LO:TX:a:t=dol	!LO:DY:a:t=p.:rj	!	!	!	!	!	!
8r	.	8r	.	8ee\J	p	8r	.	8r	.	8r	.
=99	=99	=99	=99	=99	=99	=99	=99	=99	=99	=99	=99
!	!	!	!	!	!	!	!	!	!	!LO:LB:g=original	!
!	!	!	!LO:DY:a:rj	!	!	!LO:TX:a:t=2	!	!LO:TX:a:t=2	!	!LO:TX:a:t=2	!LO:DY:a:t=p.:rj
2G#\	.	2e/	p	(8dd#X\L	.	1r	.	1r	.	1r	p
.	.	.	.	8ee\)	.	.	.	.	.	.	.
.	.	.	.	8b'\	.	.	.	.	.	.	.
.	.	.	.	8ddn'\J	.	.	.	.	.	.	.
=100	=100	=100	=100	=100	=100	=100	=100	=100	=100	=100	=100
2A\	.	2e/	.	(8cc#\L	.	.	.	.	.	.	.
.	.	.	.	8ee\)	.	.	.	.	.	.	.
.	.	.	.	8a'\	.	.	.	.	.	.	.
.	.	.	.	8cc#'\J	.	.	.	.	.	.	.
=101	=101	=101	=101	=101	=101	=101	=101	=101	=101	=101	=101
!	!	!	!	!	!	!LO:LB:g=original	!LO:DY:a:t=p.:rj	!	!LO:DY:a:t=p.:rj	!	!
2d\	.	2e/	.	(8a#X/L	.	2e\	p	2g#\	p	2ee\	.
.	.	.	.	8b/)	.	.	.	.	.	.	.
.	.	.	.	8g#'/	.	.	.	.	.	.	.
.	.	.	.	8e'/J	.	.	.	.	.	.	.
=102	=102	=102	=102	=102	=102	=102	=102	=102	=102	=102	=102
8c#\L	.	8e/L	.	(8a\L	.	8e\L	.	8a\L	.	8ee\L	.
8A\	.	8c#/	.	8cc#\)	.	8e\	.	8a\	.	8cc#\	.
8c#\	.	8e/	.	8ee'\	.	8e\J	.	8cc#\J	.	8ee\J	.
8A\J	.	8c#/J	.	8ee'\J	.	8r	.	8r	.	8r	.
=103	=103	=103	=103	=103	=103	=103	=103	=103	=103	=103	=103
!	!	!	!	!	!	!LO:TX:a:t=2	!	!LO:TX:a:t=2	!	!LO:TX:a:t=2	!
2G#\	.	2e/	.	8dd#X\L	.	1r	.	1r	.	1r	.
.	.	.	.	8ee\	.	.	.	.	.	.	.
.	.	.	.	8b\	.	.	.	.	.	.	.
.	.	.	.	8ddn\J	.	.	.	.	.	.	.
=104	=104	=104	=104	=104	=104	=104	=104	=104	=104	=104	=104
!	!	!	!	!LO:LB:g=original	!	!	!	!	!	!	!
2A\	.	2e/	.	(8cc#\L	.	.	.	.	.	.	.
.	.	.	.	8ee\)	.	.	.	.	.	.	.
.	.	.	.	8a'\	.	.	.	.	.	.	.
.	.	.	.	8cc#'\J	.	.	.	.	.	.	.
=105	=105	=105	=105	=105	=105	=105	=105	=105	=105	=105	=105
!	!	!	!	!	!	!	!LO:DY:a:t=p.:rj	!	!	!	!
2d\	.	2e/	.	8a#X/L	.	2e\	p	2g#\	.	2ee\	.
.	.	.	.	8b/	.	.	.	.	.	.	.
.	.	.	.	8g#/	.	.	.	.	.	.	.
.	.	.	.	8e/J	.	.	.	.	.	.	.
=106	=106	=106	=106	=106	=106	=106	=106	=106	=106	=106	=106
!	!	!LO:LB:g=original	!	!	!	!	!	!	!	!	!
8c#\L	.	4e/	.	4a/	.	8e\L	.	8a\L	.	8ee\L	.
8c#\	.	.	.	.	.	8e\	.	8cc#\	.	8ee\	.
8A\J	.	8r	.	8r	.	8e\J	.	8a\J	.	8cc#\J	.
8r	.	8e/	.	8cc#\	.	8r	.	8r	.	8r	.
=107	=107	=107	=107	=107	=107	=107	=107	=107	=107	=107	=107
!	!	!	!	!	!	!	!LO:DY:a	!	!	!	!
4A\	.	8d#X/L	.	(8b#X\L	.	4r	p	4r	.	4r	.
.	.	8e/	.	8cc#\)	.	.	.	.	.	.	.
8r	.	8c#/J	.	8a'\J	.	8r	.	8r	.	8r	.
8c#\	.	8r	.	8r	.	8A/	.	8cc#\	.	8ee\	.
=108	=108	=108	=108	=108	=108	=108	=108	=108	=108	=108	=108
!LO:LB:g=original	!	!	!	!	!	!	!	!	!	!	!
(8B#X\L	.	4r	.	4r	.	4A/	.	8b#X\L	.	8dd#X\L	.
8c#\)	.	.	.	.	.	.	.	8cc#\	.	8ee\	.
8A'\J	.	8r	.	8r	.	8A/	.	8a\J	.	8cc#\J	.
8r	.	8e/	.	8cc#\	.	8r	.	8r	.	8r	.
=109	=109	=109	=109	=109	=109	=109	=109	=109	=109	=109	=109
4r	.	8d#X/L	.	(8b#X\L	.	4r	.	4r	.	4r	.
.	.	8e/	.	8cc#\)	.	.	.	.	.	.	.
8r	.	8c#/J	.	8a'\J	.	8r	.	8r	.	8r	.
8c#\	.	8r	.	8r	.	8A/	.	8cc#\	.	8ee\	.
=110	=110	=110	=110	=110	=110	=110	=110	=110	=110	=110	=110
(8B#X\L	.	4r	.	4r	.	4A/	.	(8b#X\L	.	(8dd#X\L	.
8c#\)	.	.	.	.	.	.	.	8cc#\)	.	8ee\)	.
8A'\	.	8r	.	8r	.	8A/	.	8a\	.	8cc#'\	.
!	!	!	!	!LO:TX:t=P:problem:8/	!LO:DY:a:t=pp.:rj	!	!	!	!	!	!
8c#'\J	.	8c#/	.	8e/	pp	8r	.	8cc#\J	.	8ee'\J	.
=111	=111	=111	=111	=111	=111	=111	=111	=111	=111	=111	=111
!	!	!	!	!	!	!	!	!LO:LB:g=original	!	!	!
8A\	.	8A/	.	8c#/	.	8e\	.	8a\	.	8cc#\	.
8r	.	8r	.	8r	.	8r	.	8r	.	8r	.
8AA/	.	8A/	.	8c#/	.	8e\	.	8a\	.	8cc#\	.
8r	.	8r	.	8r	.	8r	.	8r	.	8r	.
=112	=112	=112	=112	=112	=112	=112	=112	=112	=112	=112	=112
4AA/	.	4A/	.	4c#/	.	4e\	.	4a\	.	4cc#\	.
4r	.	4r	.	4r	.	4r	.	4r	.	4r	.
!	!	!	!	!	!	!	!	!	!	!LO:TX:b:t=Rondo Werte Clary&colon; in C.	!
==	==	==	==	==	==	==	==	==	==	==	==
*-	*-	*-	*-	*-	*-	*-	*-	*-	*-	*-	*-
!!!system-decoration: [(s1,s2)]s3[(s4,s5)]s6
!!!ENC: Kamil Watkowski
!!!END: 2020-10-23
!!!AIN: 1 cbass 2 clars 1 cor 2 violn
!!!ENC: Krzysztof Stępień
!!!END: 2022-02-08
!!!RDF**kern: > = above
!!!RDF**kern: < = below
